icons/media/playlist-3-24.svg

<svg width="24" height="24" viewBox="0 0 24 24" fill="none" xmlns="http://www.w3.org/2000/svg">
<path d="M2.75 4.5C2.33579 4.5 2 4.83579 2 5.25C2 5.66421 2.33579 6 2.75 6H8.75C9.16421 6 9.5 5.66421 9.5 5.25C9.5 4.83579 9.16421 4.5 8.75 4.5H2.75Z" fill="black"/>
<path fill-rule="evenodd" clip-rule="evenodd" d="M20.5 8.18058V12.6281C19.7085 12.349 18.7921 12.5259 18.159 13.159C17.2803 14.0377 17.2803 15.4623 18.159 16.341C19.0377 17.2197 20.4623 17.2197 21.341 16.341C21.7803 15.9017 22 15.3258 22 14.75V7.56021C22 6.92235 21.4109 6.44753 20.7876 6.58303L15.0376 7.72433C14.5779 7.82427 14.25 8.23109 14.25 8.70151V13.6281C13.4585 13.349 12.5421 13.526 11.909 14.159C11.0303 15.0377 11.0303 16.4623 11.909 17.341C12.7877 18.2197 14.2123 18.2197 15.091 17.341C15.5303 16.9017 15.75 16.3258 15.75 15.75V9.10449L20.5 8.18058ZM20.2803 14.2197C20.4268 14.3661 20.5 14.5581 20.5 14.75C20.5 14.9419 20.4268 15.1339 20.2803 15.2803C19.9874 15.5732 19.5126 15.5732 19.2197 15.2803C18.9268 14.9874 18.9268 14.5126 19.2197 14.2197C19.5126 13.9268 19.9874 13.9268 20.2803 14.2197ZM14.0303 15.2197C14.1767 15.366 14.2499 15.5578 14.25 15.7496C14.25 15.9415 14.1768 16.1339 14.0303 16.2803C13.7374 16.5732 13.2626 16.5732 12.9697 16.2803C12.6768 15.9874 12.6768 15.5126 12.9697 15.2197C13.2626 14.9268 13.7374 14.9268 14.0303 15.2197Z" fill="black"/>
<path d="M2 19.25C2 18.8358 2.33579 18.5 2.75 18.5H8.75C9.16421 18.5 9.5 18.8358 9.5 19.25C9.5 19.6642 9.16421 20 8.75 20H2.75C2.33579 20 2 19.6642 2 19.25Z" fill="black"/>
<path d="M2.75 8C2.33579 8 2 8.33579 2 8.75C2 9.16421 2.33579 9.5 2.75 9.5H8.75C9.16421 9.5 9.5 9.16421 9.5 8.75C9.5 8.33579 9.16421 8 8.75 8H2.75Z" fill="black"/>
<path d="M2 15.75C2 15.3358 2.33579 15 2.75 15H8.75C9.16421 15 9.5 15.3358 9.5 15.75C9.5 16.1642 9.16421 16.5 8.75 16.5H2.75C2.33579 16.5 2 16.1642 2 15.75Z" fill="black"/>
<path d="M2.75 11.5C2.33579 11.5 2 11.8358 2 12.25C2 12.6642 2.33579 13 2.75 13H8.75C9.16421 13 9.5 12.6642 9.5 12.25C9.5 11.8358 9.16421 11.5 8.75 11.5H2.75Z" fill="black"/>
</svg>

<svg xmlns="http://www.w3.org/2000/svg" width="24" height="24"><path d="M2.75 4.5a.75.75 0 000 1.5h6a.75.75 0 000-1.5h-6z"/><path fill-rule="evenodd" d="M20.5 8.18v4.448A2.25 2.25 0 1022 14.75V7.56a1 1 0 00-1.212-.977l-5.75 1.141a1 1 0 00-.788.978v4.926a2.25 2.25 0 101.5 2.122V9.104l4.75-.923zm-.22 6.04a.747.747 0 010 1.06.75.75 0 110-1.06zm-6.25 1a.747.747 0 010 1.06.75.75 0 110-1.06z"/><path d="M2 19.25a.75.75 0 01.75-.75h6a.75.75 0 010 1.5h-6a.75.75 0 01-.75-.75zM2.75 8a.75.75 0 000 1.5h6a.75.75 0 000-1.5h-6zM2 15.75a.75.75 0 01.75-.75h6a.75.75 0 010 1.5h-6a.75.75 0 01-.75-.75zm.75-4.25a.75.75 0 000 1.5h6a.75.75 0 000-1.5h-6z"/></svg>
